X: 27453
T: Molly Connell
R: strathspey
M: 4/4
K: Amixolydian
|:c2 A>c e>fa>e|f<a f/e/c ec B2|c2 A>c e>fa>e|f/e/c e>c Bc AB|
c2 A>c e>fa>e|f<a f/e/c ec B2|c2 A>c e>fa>e|f/e/c e>c B2 A2:|
|:a2 e<a f/e/c e2|c<ee>f ec B2|a2 e<a f/e/c e2|f>ee>c Bc Ae|
a2 e<a f/e/c e2|c<ee>f ec B2|a2 e<a f/e/c ea|f>ee>c B2 A2:|

